X:162
T:British Carnival. JJo.162
B:J.Johnson Choice Collection Vol 8 1758
Z:vmp.Simon Wilson 2013 www.village-music-project.org.uk
Z:Dance added by John Chambers 2017
M:2/4
L:1/8
%Q:1/2=80
K:Bb
|:\
B2B/c/d | {d}c3g | fedc | dBBc |\
dBBc | dBgf | edcB | cFF2 :|
|:\
c2c/d/e | {e}d3b | fedc | dBBc |\
dFGA | BDEG | FEDC | DB,B,2 :|
%%begintext align
%% Set 4 and half Right and
%% Left the same back again,
%% cross over and turn, whole
%% figure at top :|:
%%endtext
